X:232
%%etbk:tnset id:72,pos:3,rep:3x,ant:
%%etbk:wsite http://www.thesession.org/tunes/display/160
%%etbk:pldat 2016-07-21T19:09,2016-05-26T18:19,2016-03-22T18:17,2015-07-25T15:09,2015-04-23T18:46,2015-04-21T15:20,2015-03-24T17:16,2015-02-14T14:49,2015-02-04T17:28,2015-02-03T16:38,2015-02-02T19:11,2014-12-31T14:52,2014-12-17T18:26,2014-12-01T19:18,2014-09-24T16:40,2014-05-17T14:38,2014-04-08T17:38,2014-03-22T15:24,2014-02-27T18:55,2014-02-16T13:34,2014-02-09T11:42,2014-02-07T16:44,2013-10-24T18:13,2013-10-21T17:58,2013-10-20T13:53,2013-10-07T18:38,2013-09-12T18:27,2013-09-11T18:59,2013-08-29T16:25,2013-08-28T17:18,2013-08-26T17:53
T: Gallagher's Frolics
Z: Piano Box Version by Martin Fleischmann
H: Created 2013-02-19 /  Last Modified 2013-02-19
M: 6/8
L: 1/8
R: jig
K: Edor
|: "em"!1!E !3!(3E!2!E!1!E !3!GFE | !5!B2!2!B !4!dBA | !2!BdB {d}B!1!A!2!B | "G"!1!G!2!G!1!G "D"!4!A!2!F!1!D |
"em"!1!E3 !3!GFE | !2!BBB !4!dBA | !2!B!1!A!3!G "bm"!2!F!4!AF | "em"!3!G!1!EE E3:|
|: "em"!2!e2f !4!gf!2!e | !3!g2a !5!b!3!g!2!e | "D"!1!d!2!d!1!d !3!fed | !3!f!5!a!1!d !3!fed |
"em"!2!e2f !4!gfe | "bm"!1!dfe !1!d!2!B!1!A |{d} !2!B!1!A!3!G !2!F!4!AF | "em"!3!G!1!EE E3:|


